img/logo-twitter-15.svg

<svg fill="none" height="24" viewBox="0 0 24 24" width="24" xmlns="http://www.w3.org/2000/svg" xmlns:xlink="http://www.w3.org/1999/xlink"><clipPath id="a"><path d="m0 0h24v24h-24z"/></clipPath><g clip-path="url(#a)"><path d="m21.5864 7.0927c.0145.21.0145.42.0145.63194 0 6.45776-4.9162 13.90546-13.90551 13.90546v-.0038c-2.65548.0038-5.2558-.7568-7.491288-2.191.386129.0464.774193.0697 1.163228.0706 2.20064.002 4.33838-.7364 6.06967-2.0961-2.09129-.0397-3.92516-1.4032-4.5658-3.3939.73258.1413 1.48742.1123 2.20645-.0842-2.28-.4606-3.92032-2.4638-3.92032-4.79029v-.06193c.67935.37839 1.44.58839 2.21806.61161-2.14742-1.43516-2.809353-4.29193-1.51258-6.52548 2.48129 3.05322 6.14226 4.90935 10.07229 5.1058-.3939-1.69742.1442-3.47613 1.4138-4.66935 1.9684-1.85032 5.0642-1.75548 6.9146.21193 1.0945-.2158 2.1435-.61741 3.1035-1.18645-.3648 1.13129-1.1284 2.09226-2.1484 2.70291.9687-.1142 1.9152-.37355 2.8065-.76936-.6562.98323-1.4826 1.83968-2.4387 2.53161z" fill="#000"/></g></svg>

<svg width="24" height="24" viewBox="0 0 24 24" fill="none" xmlns="http://www.w3.org/2000/svg">
<g clip-path="url(#clip0_3527_3852)">
<path d="M21.5864 7.0927C21.6009 7.3027 21.6009 7.5127 21.6009 7.72464C21.6009 14.1824 16.6847 21.6301 7.69539 21.6301V21.6263C5.03991 21.6301 2.43959 20.8695 0.204102 19.4353C0.590231 19.4817 0.978295 19.505 1.36733 19.5059C3.56797 19.5079 5.70571 18.7695 7.437 17.4098C5.34571 17.3701 3.51184 16.0066 2.8712 14.0159C3.60378 14.1572 4.35862 14.1282 5.07765 13.9317C2.79765 13.4711 1.15733 11.4679 1.15733 9.14141V9.07948C1.83668 9.45787 2.59733 9.66787 3.37539 9.69109C1.22797 8.25593 0.566037 5.39916 1.86281 3.16561C4.3441 6.21883 8.00507 8.07496 11.9351 8.27141C11.5412 6.57399 12.0793 4.79528 13.3489 3.60206C15.3173 1.75174 18.4131 1.84658 20.2635 3.81399C21.358 3.59819 22.407 3.19658 23.367 2.62754C23.0022 3.75883 22.2386 4.7198 21.2186 5.33045C22.1873 5.21625 23.1338 4.9569 24.0251 4.56109C23.3689 5.54432 22.5425 6.40077 21.5864 7.0927Z" fill="black"/>
</g>
<defs>
<clipPath id="clip0_3527_3852">
<rect width="24" height="24" fill="white"/>
</clipPath>
</defs>
</svg>
